assets/Instagram-faa26ee4.svg

<svg width="30" height="30" viewBox="0 0 30 30" fill="none" xmlns="http://www.w3.org/2000/svg">
<path d="M8.7879 0.104907C7.19188 0.180208 6.10197 0.434911 5.14916 0.809315C4.16305 1.19362 3.32724 1.70932 2.49563 2.54393C1.66402 3.37854 1.15192 4.21495 0.770315 5.20256C0.401011 6.15747 0.150809 7.24828 0.0803083 8.8452C0.00980753 10.4421 -0.00579263 10.9554 0.00200745 15.0289C0.00980753 19.1023 0.0278077 19.6129 0.105209 21.2131C0.181409 22.8088 0.435212 23.8984 0.809616 24.8516C1.19452 25.8377 1.70962 26.6732 2.54453 27.5051C3.37944 28.337 4.21525 28.8479 5.20526 29.2301C6.15927 29.5988 7.25038 29.8502 8.847 29.9201C10.4436 29.99 10.9575 30.0062 15.0298 29.9984C19.102 29.9906 19.6147 29.9726 21.2146 29.8967C22.8145 29.8208 23.8984 29.5652 24.8519 29.1926C25.838 28.8068 26.6741 28.2926 27.5054 27.4574C28.3367 26.6222 28.8485 25.7852 29.2298 24.797C29.5994 23.8429 29.8505 22.7518 29.9198 21.1564C29.9897 19.5553 30.0062 19.0441 29.9984 14.9713C29.9906 10.8984 29.9723 10.3878 29.8964 8.7882C29.8205 7.18858 29.5664 6.10227 29.1923 5.14856C28.8068 4.16245 28.2923 3.32754 27.4577 2.49503C26.6231 1.66252 25.7855 1.15102 24.7976 0.770614C23.8429 0.401311 22.7524 0.149608 21.1558 0.0806072C19.5592 0.0116065 19.0453 -0.00609364 14.9716 0.00170643C10.8978 0.00950651 10.3878 0.0269067 8.7879 0.104907ZM8.9631 27.2216C7.50058 27.158 6.70648 26.915 6.17727 26.7116C5.47646 26.4416 4.97726 26.1152 4.44985 25.5929C3.92245 25.0706 3.59844 24.5696 3.32484 23.8702C3.11934 23.341 2.87184 22.5478 2.80344 21.0853C2.72904 19.5046 2.71343 19.03 2.70473 15.0253C2.69603 11.0205 2.71133 10.5465 2.78064 8.9652C2.84304 7.50388 3.08754 6.70887 3.29064 6.17997C3.56064 5.47826 3.88585 4.97996 4.40935 4.45285C4.93286 3.92575 5.43236 3.60114 6.13227 3.32754C6.66087 3.12114 7.45408 2.87574 8.916 2.80613C10.4979 2.73113 10.9719 2.71613 14.9761 2.70743C18.9802 2.69873 19.4554 2.71373 21.0379 2.78333C22.4992 2.84694 23.2945 3.08904 23.8228 3.29334C24.524 3.56334 25.0229 3.88765 25.55 4.41205C26.0771 4.93646 26.402 5.43416 26.6756 6.13557C26.8823 6.66267 27.1277 7.45558 27.1967 8.9184C27.272 10.5003 27.2891 10.9746 27.2963 14.9785C27.3035 18.9823 27.2894 19.4578 27.2201 21.0385C27.1562 22.501 26.9138 23.2954 26.7101 23.8252C26.4401 24.5258 26.1146 25.0253 25.5908 25.5521C25.067 26.0789 24.5681 26.4035 23.8678 26.6771C23.3398 26.8832 22.5457 27.1292 21.085 27.1988C19.5031 27.2732 19.0291 27.2888 15.0235 27.2975C11.0178 27.3062 10.5453 27.29 8.9634 27.2216M21.1915 6.98308C21.1921 7.33911 21.2983 7.68697 21.4966 7.98267C21.6949 8.27836 21.9764 8.50861 22.3056 8.64428C22.6348 8.77995 22.9968 8.81496 23.3459 8.74487C23.6949 8.67479 24.0154 8.50276 24.2667 8.25054C24.518 7.99833 24.6888 7.67725 24.7576 7.32793C24.8264 6.97861 24.7901 6.61672 24.6532 6.28805C24.5163 5.95938 24.2851 5.67868 23.9886 5.48146C23.6922 5.28424 23.344 5.17935 22.9879 5.18006C22.5107 5.18101 22.0533 5.37149 21.7164 5.7096C21.3795 6.04772 21.1907 6.50579 21.1915 6.98308ZM7.29838 15.0151C7.30678 19.2691 10.7616 22.7098 15.0148 22.7017C19.2679 22.6936 22.711 19.2391 22.7029 14.9851C22.6948 10.731 19.2391 7.28938 14.9854 7.29778C10.7316 7.30618 7.29028 10.7616 7.29838 15.0151ZM10.0002 15.0097C9.99825 14.0207 10.2896 13.0534 10.8374 12.2301C11.3852 11.4067 12.1648 10.7643 13.0777 10.384C13.9906 10.0038 14.9958 9.90276 15.9661 10.0938C16.9364 10.2848 17.8283 10.7592 18.529 11.4571C19.2296 12.155 19.7076 13.045 19.9025 14.0146C20.0973 14.9841 20.0003 15.9897 19.6237 16.9041C19.247 17.8185 18.6077 18.6007 17.7865 19.1517C16.9653 19.7028 15.9992 19.9979 15.0103 19.9999C14.3536 20.0013 13.7031 19.8733 13.0959 19.6232C12.4888 19.3732 11.9368 19.006 11.4715 18.5426C11.0063 18.0792 10.6369 17.5287 10.3844 16.9225C10.132 16.3163 10.0014 15.6663 10.0002 15.0097Z" fill="white"/>
</svg>

<svg xmlns="http://www.w3.org/2000/svg" width="30" height="30" fill="none" viewBox="0 0 30 30"><path fill="#fff" d="M8.788.105C7.192.18 6.102.435 5.149.809a7.34 7.34 0 0 0-2.653 1.735A7.348 7.348 0 0 0 .77 5.203C.401 6.157.15 7.248.08 8.845c-.07 1.597-.086 2.11-.078 6.184.008 4.073.026 4.584.103 6.184.076 1.596.33 2.685.705 3.639.385.986.9 1.821 1.735 2.653a7.34 7.34 0 0 0 2.66 1.725c.954.369 2.045.62 3.642.69 1.597.07 2.11.086 6.183.078 4.072-.007 4.585-.025 6.185-.101 1.6-.076 2.683-.332 3.637-.704a7.352 7.352 0 0 0 2.653-1.736 7.351 7.351 0 0 0 1.725-2.66c.37-.954.62-2.045.69-3.64.07-1.602.086-2.113.078-6.186-.007-4.073-.026-4.583-.102-6.183-.076-1.6-.33-2.686-.704-3.64a7.364 7.364 0 0 0-1.734-2.653 7.32 7.32 0 0 0-2.66-1.724C23.843.4 22.752.15 21.156.08c-1.597-.07-2.11-.087-6.184-.08-4.074.009-4.584.026-6.184.104Zm.175 27.117c-1.462-.064-2.257-.307-2.786-.51a4.67 4.67 0 0 1-1.727-1.12 4.62 4.62 0 0 1-1.125-1.722c-.206-.529-.453-1.322-.522-2.785-.074-1.58-.09-2.055-.098-6.06-.009-4.005.006-4.479.076-6.06.062-1.461.307-2.256.51-2.785.27-.702.595-1.2 1.118-1.727a4.63 4.63 0 0 1 1.723-1.125c.529-.207 1.322-.452 2.784-.522 1.582-.075 2.056-.09 6.06-.099 4.004-.008 4.48.007 6.062.076 1.461.064 2.256.306 2.785.51.701.27 1.2.595 1.727 1.119a4.629 4.629 0 0 1 1.126 1.724c.206.527.452 1.32.52 2.782.076 1.582.093 2.057.1 6.06.008 4.004-.007 4.48-.076 6.06-.064 1.463-.306 2.257-.51 2.787-.27.7-.595 1.2-1.12 1.727a4.633 4.633 0 0 1-1.722 1.125c-.528.206-1.322.452-2.783.522-1.582.074-2.056.09-6.062.098-4.005.01-4.478-.007-6.06-.075M21.192 6.983a1.8 1.8 0 1 0 3.6-.006 1.8 1.8 0 0 0-3.6.006ZM7.298 15.015a7.703 7.703 0 1 0 15.403-.032 7.703 7.703 0 0 0-15.403.032ZM10 15.01a5 5 0 1 1 10-.02 5 5 0 0 1-10 .02Z"/></svg>
